X:1
T:63
L:1/8
M:2/4
K:Dmin
V:1 treble nm="Piano" snm="Pno."
V:1
 F<A- A/G/F/E/ | F<B- B/A/G/F/ | E>G FE | D A3 | B<d- d/^c/d/A/ | G<d- d/^c/d/F/ | A<A- A/G/^c/e/ | %7
 d d3 |] %8

